packages/tokens/icons/campaigns/size32Px.svg

<svg viewBox="0 0 32 32" fill="none" xmlns="http://www.w3.org/2000/svg" width="1em" height="1em"><path d="M10.6459 12.5C11.2593 12.5 11.8109 12.8734 12.0386 13.4429L12.4843 14.5571C12.7121 15.1266 13.2637 15.5 13.877 15.5H26C26.8284 15.5 27.5 16.1716 27.5 17V28C27.5 28.8284 26.8284 29.5 26 29.5H6C5.17157 29.5 4.5 28.8284 4.5 28V14C4.5 13.1716 5.17157 12.5 6 12.5H10.6459Z" stroke="currentColor"/><path d="M24.5 16L24.5 3.50003C24.5 2.94775 24.0523 2.50003 23.5 2.50003L8.49997 2.5C7.94769 2.5 7.49997 2.94771 7.49997 3.5L7.49997 12.4545" stroke="currentColor"/><path fill-rule="evenodd" clip-rule="evenodd" d="M11 6.5C11 6.77614 10.7761 7 10.5 7C10.2239 7 10 6.77614 10 6.5C10 6.22386 10.2239 6 10.5 6C10.7761 6 11 6.22386 11 6.5ZM12 6.5C12 7.32843 11.3284 8 10.5 8C9.67157 8 9 7.32843 9 6.5C9 5.67157 9.67157 5 10.5 5C11.3284 5 12 5.67157 12 6.5ZM13.5 6C13.2239 6 13 6.22386 13 6.5C13 6.77614 13.2239 7 13.5 7L21.5 7C21.7761 7 22 6.77614 22 6.5C22 6.22386 21.7761 6 21.5 6L13.5 6ZM10.5 9C10.2239 9 10 9.22386 10 9.5C10 9.77614 10.2239 10 10.5 10L21.5 10C21.7761 10 22 9.77614 22 9.5C22 9.22386 21.7761 9 21.5 9L10.5 9ZM14 12.5C14 12.2239 14.2239 12 14.5 12L21.5 12C21.7761 12 22 12.2239 22 12.5C22 12.7761 21.7761 13 21.5 13L14.5 13C14.2239 13 14 12.7761 14 12.5Z" fill="currentColor"/><path d="M16.5 20C16.5 19.7239 16.2761 19.5 16 19.5C15.7239 19.5 15.5 19.7239 15.5 20V23C15.5 23.2152 15.6377 23.4063 15.8419 23.4743L17.3419 23.9743C17.6039 24.0617 17.887 23.9201 17.9743 23.6581C18.0617 23.3961 17.9201 23.113 17.6581 23.0257L16.5 22.6396V20Z" fill="currentColor"/><path fill-rule="evenodd" clip-rule="evenodd" d="M21 22C21 24.7614 18.7614 27 16 27C13.2386 27 11 24.7614 11 22C11 19.2386 13.2386 17 16 17C18.7614 17 21 19.2386 21 22ZM20 22C20 24.2091 18.2091 26 16 26C13.7909 26 12 24.2091 12 22C12 19.7909 13.7909 18 16 18C18.2091 18 20 19.7909 20 22Z" fill="currentColor"/></svg>

<svg xmlns="http://www.w3.org/2000/svg" fill="none" viewBox="0 0 32 32" width="1em" height="1em"><path stroke="currentColor" d="M10.646 12.5a1.5 1.5 0 0 1 1.393.943l.445 1.114a1.5 1.5 0 0 0 1.393.943H26a1.5 1.5 0 0 1 1.5 1.5v11a1.5 1.5 0 0 1-1.5 1.5H6A1.5 1.5 0 0 1 4.5 28V14A1.5 1.5 0 0 1 6 12.5h4.646Z"/><path stroke="currentColor" d="M24.5 16V3.5a1 1 0 0 0-1-1h-15a1 1 0 0 0-1 1v8.954"/><path fill="currentColor" fill-rule="evenodd" d="M11 6.5a.5.5 0 1 1-1 0 .5.5 0 0 1 1 0Zm1 0a1.5 1.5 0 1 1-3 0 1.5 1.5 0 0 1 3 0Zm1.5-.5a.5.5 0 0 0 0 1h8a.5.5 0 0 0 0-1h-8Zm-3 3a.5.5 0 0 0 0 1h11a.5.5 0 0 0 0-1h-11Zm3.5 3.5a.5.5 0 0 1 .5-.5h7a.5.5 0 0 1 0 1h-7a.5.5 0 0 1-.5-.5Z" clip-rule="evenodd"/><path fill="currentColor" d="M16.5 20a.5.5 0 0 0-1 0v3a.5.5 0 0 0 .342.474l1.5.5a.5.5 0 1 0 .316-.948L16.5 22.64V20Z"/><path fill="currentColor" fill-rule="evenodd" d="M21 22a5 5 0 1 1-10 0 5 5 0 0 1 10 0Zm-1 0a4 4 0 1 1-8 0 4 4 0 0 1 8 0Z" clip-rule="evenodd"/></svg>
